X: 0119
T: Ha! Ha!! The Wooin' O' It - 8x32R
P: Ha! Ha! The Wooin' O't
C: arr. Nan Main
B: Miss Milligan's Miscellany v.1 #0119
B: Originally Ours v.1 p.173 #MMM-0119
Z: 2020 John Chambers <jc:trillian.mit.edu>
M: 2/4
L: 1/16
R: march, reel
K: A
%
A2 |\
"A"E2A2 G2A2 | "B"B2c2 "E7"G2z2 | "A"A2z2 "E7"B3c | "A"c2A2 A2z2 |\
"A"E2A2 G2A2 | "B"B2c2 "E7"B2z2 | "F#m"A2z2 "E7"B3d | "A"c2A2 A2B2 |
"A"c2e2 e2dc | "Bm"d2d2 d2z2 | "Bm"d3c "D#/B7"B2A2 | "E"G2F2 "D/E7"E2z2 |\
"A"e3c "Bm"d2B2 | "A"c2A2 "E7"B2z2 | "F#m"A2z2 "E7"B3d | "A"c2A2 A2z2 ||
"A"E2A2 G2A2 | "Bm"BcdB "E7"G2z2 | "A"AGAc "E7"B^ABd | "A"c2A2 A2GF |\
"A"E2A2 G2A2 | "E"BcdB G2z2 | "A"A2Bc "D"defg | "A"a2A2 A2z2 |
"A"c2e2 e2dc | "Bm"dcBc d2z2 | "Bm"decd "D#/B7"BcAB | "E"GABG "D/E7"E2z2 |\
"A"e2dc "Bm"d2cB | "A"cBAc "E7"B2E2 | "A"A2Bc "D"defg | "A"a2A2 A2 |]
